public/avatar/item0/8.svg

<svg xmlns:xlink="http://www.w3.org/1999/xlink" height="58.65" width="49.15" xmlns="http://www.w3.org/2000/svg"><use height="16.1" transform="translate(7.3 21.6)" width="32.8" xlink:href="#a"/><defs><g id="a"><path d="m5.2 19.6-2.65-.35q-2-1.2-3.1-1.1l-2.6.85-3.3.25q-4.5 0-6.25-.7-2.35-.95-2.35-4.25l.1.45 1.3 1.6q1.2 1.05 1.95 1.05l8.5.2q1 0 2.85-1.85 2.45 1.85 3.3 1.85l8-.2q1.6 0 3.1-2.3l-.45 2.15q-1.05 1.7-7.05 2.25l-1.35.1" fill="#706b94" fill-opacity=".302" fill-rule="evenodd" transform="translate(16.8 -3.5)"/><path d="m-4.6 6-4.7-.1q-2.45 0-2.45 3.3v3.45q0 3.25 3.25 3.25l4.75.1q2.4 0 2.4-3.3V9.25Q-1.35 6-4.6 6m-9.2-1.75L-.4 4v11.7l.05.05q-1.85 1.85-2.8 1.85l-8.55-.2q-.75 0-1.95-1.05l-1.3-1.6q-1.1-3.3-1.1-6.5-.35-1.5-.2-2.35.2-1.65 2.45-1.65" fill="#fffbe5" fill-rule="evenodd" transform="translate(16.8 -3.5)"/><path d="M-8.5 15.9q-3.25 0-3.25-3.25V9.2q0-3.3 2.45-3.3l4.7.1q3.25 0 3.25 3.25v3.45q0 3.3-2.4 3.3l-4.75-.1" fill="red" fill-opacity=".502" fill-rule="evenodd" transform="translate(16.8 -3.5)"/><path d="M15.35 8.25q0 3.05-1.15 6.5l-1.3 1.6q-1.15 1.05-1.95 1.05l-8 .2-3.35-1.9V4l13.5.25q2.25 0 2.5 1.65l-.25 2.35M3.85 6Q.6 6 .6 9.25v3.45Q.6 16 3.05 16l4.7-.1q3.25 0 3.25-3.25V9.2q0-3.3-2.4-3.3L3.85 6" fill="#fffbe5" fill-rule="evenodd" transform="translate(16.8 -3.5)"/><path d="M.6 12.7V9.25Q.6 6 3.85 6l4.75-.1q2.4 0 2.4 3.3v3.45q0 3.25-3.25 3.25l-4.7.1Q.6 16 .6 12.7" fill="#3100ff" fill-opacity=".502" fill-rule="evenodd" transform="translate(16.8 -3.5)"/><path d="M13.1 4.25-.3 4l-13.5.25q-2.3 0-2.5 2.05l.45 3.95.65 3.2q.9 3.95 5.85 3.95l5.9.2q.7 0 3.05-1.9.7 0 3.35 1.9l4.3-.2q3.1 0 4.35-.6 1.5-.75 2.55-3.1l1.05-3.2q1.2-6.25-2.1-6.25Z" fill="none" stroke="#757470" stroke-linecap="round" stroke-linejoin="round" transform="translate(16.8 -3.5)"/></g></defs></svg>

<?xml version="1.0" encoding="UTF-8" standalone="no"?>
<svg xmlns:xlink="http://www.w3.org/1999/xlink" height="58.65px" width="49.15px" xmlns="http://www.w3.org/2000/svg">
  <g transform="matrix(1.0, 0.0, 0.0, 1.0, 24.1, 18.1)">
    <use height="16.1" transform="matrix(1.0, 0.0, 0.0, 1.0, -16.8, 3.5)" width="32.8" xlink:href="#shape0"/>
  </g>
  <defs>
    <g id="shape0" transform="matrix(1.0, 0.0, 0.0, 1.0, 16.8, -3.5)">
      <path d="M5.2 19.6 L2.55 19.25 Q0.55 18.05 -0.55 18.15 L-3.15 19.0 -6.45 19.25 Q-10.95 19.25 -12.7 18.55 -15.05 17.6 -15.05 14.3 L-14.95 14.75 -13.65 16.35 Q-12.45 17.4 -11.7 17.4 L-3.2 17.6 Q-2.2 17.6 -0.35 15.75 2.1 17.6 2.95 17.6 L10.95 17.4 Q12.55 17.4 14.05 15.1 L13.6 17.25 Q12.55 18.95 6.55 19.5 L5.2 19.6" fill="#706b94" fill-opacity="0.3019608" fill-rule="evenodd" stroke="none"/>
      <path d="M-4.6 6.0 L-9.3 5.9 Q-11.75 5.9 -11.75 9.2 L-11.75 12.65 Q-11.75 15.9 -8.5 15.9 L-3.75 16.0 Q-1.35 16.0 -1.35 12.7 L-1.35 9.25 Q-1.35 6.0 -4.6 6.0 M-13.8 4.25 L-0.4 4.0 -0.4 15.7 -0.35 15.75 Q-2.2 17.6 -3.15 17.6 L-11.7 17.4 Q-12.45 17.4 -13.65 16.35 L-14.95 14.75 Q-16.05 11.45 -16.05 8.25 -16.4 6.75 -16.25 5.9 -16.05 4.25 -13.8 4.25" fill="#fffbe5" fill-rule="evenodd" stroke="none"/>
      <path d="M-8.5 15.9 Q-11.75 15.9 -11.75 12.65 L-11.75 9.2 Q-11.75 5.9 -9.3 5.9 L-4.6 6.0 Q-1.35 6.0 -1.35 9.25 L-1.35 12.7 Q-1.35 16.0 -3.75 16.0 L-8.5 15.9" fill="#ff0000" fill-opacity="0.5019608" fill-rule="evenodd" stroke="none"/>
      <path d="M15.35 8.25 Q15.35 11.3 14.2 14.75 L12.9 16.35 Q11.75 17.4 10.95 17.4 L2.95 17.6 -0.4 15.7 -0.4 4.0 13.1 4.25 Q15.35 4.25 15.6 5.9 L15.35 8.25 M3.85 6.0 Q0.6 6.0 0.6 9.25 L0.6 12.7 Q0.6 16.0 3.05 16.0 L7.75 15.9 Q11.0 15.9 11.0 12.65 L11.0 9.2 Q11.0 5.9 8.6 5.9 L3.85 6.0" fill="#fffbe5" fill-rule="evenodd" stroke="none"/>
      <path d="M0.6 12.7 L0.6 9.25 Q0.6 6.0 3.85 6.0 L8.6 5.9 Q11.0 5.9 11.0 9.2 L11.0 12.65 Q11.0 15.9 7.75 15.9 L3.05 16.0 Q0.6 16.0 0.6 12.7" fill="#3100ff" fill-opacity="0.5019608" fill-rule="evenodd" stroke="none"/>
      <path d="M13.1 4.25 L-0.3 4.0 -13.8 4.25 Q-16.1 4.25 -16.3 6.3 L-15.85 10.25 -15.2 13.45 Q-14.3 17.4 -9.35 17.4 L-3.45 17.6 Q-2.75 17.6 -0.4 15.7 0.3 15.7 2.95 17.6 L7.25 17.4 Q10.35 17.4 11.6 16.8 13.1 16.05 14.15 13.7 L15.2 10.5 Q16.4 4.25 13.1 4.25 Z" fill="none" stroke="#757470" stroke-linecap="round" stroke-linejoin="round" stroke-width="1.0"/>
    </g>
  </defs>
</svg>
